assets/features/channel/europe-and-america/eps.svg

<svg width="80" height="80" viewBox="0 0 80 80" fill="none" xmlns="http://www.w3.org/2000/svg">
<rect x="0.5" y="0.5" width="79" height="79" rx="7.5" fill="white"/>
<rect x="0.5" y="0.5" width="79" height="79" rx="7.5" stroke="#EEEEEE"/>
<path d="M57.5294 38.8295H53.0648C52.5687 38.8295 52.1691 38.4367 52.1691 37.9405C52.1691 37.4443 52.5687 37.0101 53.0648 37.0101H59.8581V33.6606H53.0648C50.6947 33.6606 48.7656 35.5972 48.7656 37.9611C48.7656 40.325 50.6947 42.2617 53.0648 42.2617H57.4673C57.9634 42.2617 58.363 42.6545 58.363 43.1507C58.363 43.6469 57.9634 44.0122 57.4673 44.0122H48.0284C47.2292 45.5422 46.4506 46.8516 44.866 47.5063H57.5294C59.8581 47.4719 61.7666 45.5008 61.7666 43.1576C61.7666 40.8075 59.8581 38.864 57.5294 38.8295Z" fill="#71706F"/>
<path d="M40.422 33.6606C36.6395 33.6606 33.5598 36.762 33.5598 40.5663V40.711V54.9357H36.984V47.5063H40.4151C44.1976 47.5063 47.2636 44.3637 47.2636 40.5594C47.2704 36.7482 44.2045 33.6606 40.422 33.6606ZM40.422 44.0053H36.984V40.5525C36.984 38.6228 38.5204 37.0514 40.422 37.0514C42.3236 37.0514 43.8738 38.6228 43.8738 40.5525C43.8738 42.4822 42.3236 44.0053 40.422 44.0053Z" fill="#71706F"/>
<path d="M22.7221 47.5065C19.484 47.5065 16.7625 45.1977 16.0253 42.186C16.0253 42.186 15.8117 41.1867 15.8117 40.5319C15.8117 39.8772 16.0115 38.871 16.0115 38.871C16.7556 35.8662 19.4702 33.6263 22.7015 33.6263C26.5046 33.6263 29.6257 36.7139 29.6257 40.5182V42.1929H19.5253C20.1247 43.3576 21.3304 44.0123 22.7221 44.0123H31.8029L31.8166 34.1501C31.8166 32.6821 30.6178 31.4761 29.1434 31.4761H16.2733C14.8058 31.4761 13.6001 32.6408 13.6001 34.1156V46.9896C13.6001 48.4575 14.8058 49.6981 16.2733 49.6981H29.1434C30.4594 49.6981 31.5617 48.7539 31.7753 47.5134H22.7221V47.5065Z" fill="#B90466"/>
<path d="M22.7083 36.8931C21.3234 36.8931 20.1177 37.7408 19.5183 38.8366H25.8982C25.2988 37.7408 24.0931 36.8931 22.7083 36.8931Z" fill="#B90466"/>
<path d="M28.5371 27.2859C28.5371 24.1432 25.9258 21.6001 22.7083 21.6001C19.5459 21.6001 16.9692 24.0674 16.8865 27.1342C16.8865 27.148 16.8865 27.1618 16.8865 27.1756V28.8779C16.8865 29.0846 17.0518 29.2845 17.2654 29.2845H19.4081C19.6148 29.2845 19.8008 29.0846 19.8008 28.8779V27.2859C19.8008 25.7145 21.103 24.4395 22.7152 24.4395C24.3274 24.4395 25.6296 25.7145 25.6296 27.2859V28.8779C25.6296 29.0846 25.7949 29.2845 26.0085 29.2845H28.1512C28.3579 29.2845 28.544 29.0846 28.544 28.8779V27.2859H28.5371Z" fill="#B90466"/>
<path d="M44.2665 51.9518L43.9565 53.7092C43.8049 54.5983 43.2193 55.0049 42.4338 55.0049C41.7655 55.0049 41.2488 54.5707 41.4004 53.7092L41.7104 51.9518H42.1858L41.8758 53.7092C41.7793 54.2606 42.0273 54.5707 42.489 54.5707C42.9643 54.5707 43.3777 54.2881 43.4742 53.7092L43.7842 51.9518H44.2665ZM42.3856 51.4005C42.3856 51.5452 42.4958 51.6141 42.6199 51.6141C42.7714 51.6141 42.9368 51.5107 42.9368 51.304C42.9368 51.1593 42.8403 51.0903 42.7163 51.0903C42.5579 51.0903 42.3856 51.1868 42.3856 51.4005ZM43.4191 51.3936C43.4191 51.5452 43.5362 51.6141 43.6602 51.6141C43.7911 51.6141 43.9703 51.5107 43.9703 51.3109C43.9703 51.1661 43.8669 51.0903 43.7498 51.0903C43.5982 51.0903 43.4191 51.1868 43.4191 51.3936Z" fill="#71706F"/>
<path d="M45.4171 51.9517L45.2035 53.1646C45.3895 52.9165 45.7616 52.7856 46.0165 52.7856C46.5539 52.7856 46.919 53.1026 46.919 53.6815C46.919 54.5016 46.3472 54.9979 45.6169 54.9979C45.3344 54.9979 45.0932 54.8945 44.9417 54.6257L44.859 54.9427H44.4387L44.9692 51.9517H45.4171ZM45.0864 53.9985C45.0657 54.35 45.2999 54.5774 45.6306 54.5774C46.0509 54.5774 46.4505 54.2535 46.4781 53.7642C46.4988 53.4058 46.2645 53.1922 45.9407 53.1922C45.5273 53.1922 45.107 53.5299 45.0864 53.9985Z" fill="#71706F"/>
<path d="M47.7941 54.0607C47.7803 54.3502 48.0077 54.5914 48.3935 54.5914C48.6071 54.5914 48.8896 54.5087 49.048 54.364L49.2892 54.6397C49.0273 54.8809 48.6415 55.0049 48.3108 55.0049C47.6976 55.0049 47.3394 54.6397 47.3394 54.0745C47.3394 53.3302 47.925 52.772 48.676 52.772C49.3649 52.772 49.7508 53.1855 49.5165 54.0607H47.7941ZM49.1583 53.6955C49.1927 53.3302 48.9791 53.1786 48.6209 53.1786C48.297 53.1786 48.0008 53.3302 47.8699 53.6955H49.1583Z" fill="#71706F"/>
<path d="M50.7015 52.8202L50.6808 53.1028C50.8875 52.834 51.1356 52.772 51.3629 52.772C51.5696 52.772 51.7556 52.8478 51.8521 52.9512L51.5834 53.3371C51.4869 53.2475 51.3905 53.2062 51.232 53.2062C50.9289 53.2062 50.6257 53.3922 50.5568 53.7851L50.3501 54.9291H49.9092L50.2881 52.8133H50.7015V52.8202Z" fill="#71706F"/>
<path d="M53.9947 52.8198L54.2152 54.4945L55.0282 52.8198H55.5173L54.4081 54.9356H53.8914L53.6778 53.5435L53.3402 54.2326L52.9681 54.9356H52.4514L52.0793 52.8198H52.5754L52.7959 54.4945L53.6089 52.8198H53.9947Z" fill="#71706F"/>
<path d="M56.0892 54.0607C56.0755 54.3502 56.3028 54.5914 56.6887 54.5914C56.9022 54.5914 57.1847 54.5087 57.3432 54.364L57.5843 54.6397C57.3225 54.8809 56.9367 55.0049 56.606 55.0049C55.9928 55.0049 55.6345 54.6397 55.6345 54.0745C55.6345 53.3302 56.2202 52.772 56.9711 52.772C57.6601 52.772 58.0459 53.1855 57.8117 54.0607H56.0892ZM57.4534 53.6955C57.4879 53.3302 57.2743 53.1786 56.916 53.1786C56.5922 53.1786 56.2959 53.3302 56.165 53.6955H57.4534Z" fill="#71706F"/>
<path d="M59.0313 52.8198L58.6592 54.9356H58.2183L58.5903 52.8198H59.0313ZM58.6385 52.2477C58.6385 52.3994 58.7488 52.4752 58.8728 52.4752C59.045 52.4752 59.2035 52.3649 59.2035 52.1513C59.2035 52.0065 59.1002 51.9238 58.983 51.9238C58.8177 51.9307 58.6385 52.0341 58.6385 52.2477Z" fill="#71706F"/>
<path d="M60.9949 53.3436C60.8571 53.192 60.6779 53.1438 60.4713 53.1438C60.1819 53.1438 59.9683 53.2402 59.9683 53.4263C59.9683 53.5848 60.1337 53.6469 60.3886 53.6675C60.7744 53.702 61.2705 53.8329 61.1671 54.3774C61.0913 54.7702 60.6986 55.0046 60.1474 55.0046C59.8029 55.0046 59.4722 54.9287 59.2449 54.6117L59.5342 54.2947C59.6927 54.5152 59.9752 54.6048 60.2232 54.6117C60.4368 54.6117 60.6848 54.5359 60.7262 54.336C60.7675 54.1431 60.5953 54.0742 60.2852 54.0466C59.9201 54.0121 59.5274 53.8812 59.5274 53.4746C59.5274 52.9439 60.0992 52.7578 60.5333 52.7578C60.864 52.7578 61.0982 52.8336 61.298 53.0404L60.9949 53.3436Z" fill="#71706F"/>
<path d="M62.4003 52.8198L62.2005 53.957C62.1316 54.3222 62.297 54.5703 62.669 54.5703C63.0204 54.5703 63.3167 54.2809 63.3718 53.9294L63.5647 52.8198H64.0056L63.6336 54.9356H63.234L63.2616 54.6324C63.0135 54.8667 62.7655 54.9839 62.4692 54.9839C61.9456 54.9839 61.6356 54.6117 61.7527 53.9708L61.9525 52.8267H62.4003V52.8198Z" fill="#71706F"/>
<path d="M65.9554 54.9358L66.1621 53.8055C66.2241 53.4403 66.1001 53.199 65.6936 53.199C65.3422 53.199 65.046 53.4816 64.984 53.8331L64.791 54.9427H64.3501L64.7221 52.8269H65.1286L65.0942 53.137C65.3422 52.9096 65.5971 52.7993 65.8727 52.7993C66.3895 52.7993 66.7271 53.1577 66.6099 53.8055L66.4032 54.9427H65.9554V54.9358Z" fill="#71706F"/>
<path d="M67.4574 55.2255C67.4299 55.5149 67.6503 55.6321 68.0224 55.6321C68.3531 55.6321 68.7045 55.4529 68.7871 54.9842L68.8491 54.619C68.6562 54.8878 68.3048 54.998 68.0361 54.998C67.4919 54.998 67.1129 54.6741 67.1129 54.0883C67.1129 53.2544 67.733 52.772 68.4358 52.772C68.732 52.772 69.0007 52.9167 69.0972 53.1579L69.173 52.8202H69.6001L69.2281 54.998C69.0903 55.8044 68.4909 56.0525 67.9466 56.0525C67.2921 56.0525 66.9338 55.7355 67.0234 55.2255H67.4574ZM67.5814 54.0125C67.5814 54.3778 67.8157 54.5914 68.1602 54.5914C69.0765 54.5914 69.3245 53.1855 68.4082 53.1855C67.9741 53.1855 67.5814 53.5094 67.5814 54.0125Z" fill="#71706F"/>
</svg>

<svg xmlns="http://www.w3.org/2000/svg" width="80" height="80" fill="none" viewBox="0 0 80 80"><rect width="79" height="79" x=".5" y=".5" fill="#fff" rx="7.5"/><rect width="79" height="79" x=".5" y=".5" stroke="#eee" rx="7.5"/><path fill="#71706f" d="M57.53 38.83h-4.465a.89.89 0 0 1-.896-.89c0-.496.4-.93.896-.93h6.793v-3.35h-6.793a4.31 4.31 0 0 0-4.3 4.301 4.31 4.31 0 0 0 4.3 4.3h4.402c.496 0 .896.393.896.89 0 .496-.4.861-.896.861h-9.439c-.799 1.53-1.577 2.84-3.162 3.494h12.663c2.33-.034 4.238-2.005 4.238-4.348 0-2.35-1.909-4.294-4.238-4.328"/><path fill="#71706f" d="M40.422 33.66c-3.782 0-6.862 3.102-6.862 6.906v14.37h3.424v-7.43h3.431c3.783 0 6.849-3.142 6.849-6.947.006-3.81-3.06-6.898-6.842-6.898m0 10.345h-3.438v-3.453c0-1.93 1.536-3.5 3.438-3.5s3.452 1.57 3.452 3.5a3.44 3.44 0 0 1-3.452 3.453"/><path fill="#b90466" d="M22.722 47.507c-3.238 0-5.96-2.31-6.697-5.321 0 0-.213-1-.213-1.654 0-.655.2-1.661.2-1.661.744-3.005 3.458-5.245 6.69-5.245 3.803 0 6.924 3.088 6.924 6.892v1.675h-10.1c.599 1.165 1.804 1.82 3.196 1.82h9.08l.015-9.863a2.68 2.68 0 0 0-2.674-2.674h-12.87c-1.467 0-2.673 1.165-2.673 2.64V46.99c0 1.468 1.206 2.708 2.673 2.708h12.87c1.316 0 2.419-.944 2.632-2.185h-9.053z"/><path fill="#b90466" d="M22.708 36.893c-1.385 0-2.59.848-3.19 1.944h6.38c-.6-1.096-1.805-1.944-3.19-1.944m5.829-9.607c0-3.143-2.611-5.686-5.829-5.686-3.162 0-5.739 2.467-5.821 5.534v1.744c0 .207.165.407.378.407h2.143c.207 0 .393-.2.393-.407v-1.592c0-1.572 1.302-2.847 2.914-2.847s2.915 1.276 2.915 2.847v1.592c0 .207.165.407.379.407h2.142c.207 0 .393-.2.393-.407v-1.592z"/><path fill="#71706f" d="m44.267 51.952-.31 1.757c-.152.89-.738 1.296-1.523 1.296-.668 0-1.185-.434-1.034-1.296l.31-1.757h.476l-.31 1.757c-.097.552.151.862.613.862.475 0 .889-.283.985-.862l.31-1.757zm-1.881-.551c0 .144.11.213.234.213.151 0 .317-.103.317-.31 0-.145-.097-.214-.22-.214-.16 0-.331.097-.331.31m1.033-.007c0 .151.117.22.241.22.131 0 .31-.103.31-.303 0-.145-.103-.22-.22-.22-.152 0-.33.096-.33.303m1.997.559-.214 1.213c.186-.248.559-.38.813-.38.538 0 .903.318.903.897 0 .82-.572 1.316-1.302 1.316-.283 0-.524-.103-.675-.372l-.083.317h-.42l.53-2.991zm-.33 2.047c-.021.351.213.578.544.578.42 0 .82-.323.847-.813.02-.358-.214-.572-.537-.572-.414 0-.834.338-.855.806m2.708.062c-.014.29.214.531.6.531.213 0 .496-.082.654-.227l.241.276a1.5 1.5 0 0 1-.978.365c-.613 0-.972-.365-.972-.93 0-.745.586-1.303 1.337-1.303.689 0 1.075.413.84 1.289zm1.364-.364c.035-.366-.179-.517-.537-.517-.324 0-.62.151-.751.517zm1.544-.876-.021.283a.8.8 0 0 1 .682-.331c.207 0 .393.076.49.18l-.27.385a.46.46 0 0 0-.351-.13.67.67 0 0 0-.675.578l-.207 1.144h-.44l.378-2.116h.414zm3.293 0 .22 1.675.813-1.675h.49l-1.11 2.116h-.517l-.213-1.392-.338.689-.372.703h-.517l-.372-2.116h.496l.22 1.675.814-1.675zm2.095 1.24c-.015.29.213.531.599.531.213 0 .496-.082.654-.227l.241.276a1.5 1.5 0 0 1-.978.365c-.613 0-.971-.365-.971-.93 0-.745.585-1.303 1.336-1.303.69 0 1.075.413.84 1.289zm1.363-.364c.035-.366-.179-.517-.537-.517-.324 0-.62.151-.751.517zm1.578-.876-.372 2.116h-.44l.371-2.116zm-.392-.572c0 .151.11.227.234.227.172 0 .33-.11.33-.324a.215.215 0 0 0-.22-.227c-.165.007-.344.11-.344.324m2.356 1.096c-.138-.152-.317-.2-.524-.2-.29 0-.503.096-.503.282 0 .159.166.22.42.241.386.035.883.166.78.71-.077.393-.47.628-1.02.628-.345 0-.676-.076-.903-.393l.29-.317c.158.22.44.31.688.317.214 0 .462-.076.503-.276.041-.193-.13-.262-.44-.29-.366-.034-.759-.165-.759-.571 0-.531.572-.717 1.006-.717.331 0 .565.076.765.282zm1.405-.524-.2 1.137c-.068.365.097.613.469.613.351 0 .648-.29.703-.64l.193-1.11h.44l-.371 2.116h-.4l.028-.304c-.248.235-.496.352-.793.352-.523 0-.833-.372-.716-1.013l.2-1.144h.447zm3.555 2.116.207-1.13c.062-.366-.062-.607-.468-.607-.352 0-.648.283-.71.634l-.193 1.11h-.44l.371-2.116h.407l-.035.31c.248-.227.503-.338.779-.338.516 0 .854.359.737 1.007l-.207 1.137h-.448zm1.502.29c-.027.289.193.406.565.406.331 0 .682-.18.765-.648l.062-.365c-.193.269-.544.379-.813.379-.544 0-.923-.324-.923-.91 0-.834.62-1.316 1.323-1.316.296 0 .565.145.661.386l.076-.338h.427l-.372 2.178c-.138.806-.737 1.055-1.281 1.055-.655 0-1.013-.317-.924-.828zm.124-1.213c0 .365.235.578.58.578.915 0 1.163-1.406.247-1.406a.81.81 0 0 0-.827.828"/></svg>
